X:553
T:Seige of Delhi, The 
C:Joe Buchanan's Scottish Tome - Page 110.0
I:110 0
R:Reel
Z:Carl Allison
L:1/16
M:2/4
K:A
A>B | "A"c4 (c2e2) | "A"e>A"D"f>A "A"e2A>B | c4 (c2e2) | "D"f<a"A"e>c "E7"B2A>B |
"A"c4 (c2e2) | "A"e>A"D"f>A "A"e2A>B | "A"c2(a>e) "D"f2("E7"e>d) | "A"c2A2 A<A :|
A>B | "A"c4 (c2e2) | "D"d4 (d2f2) | "A"c4 (c2e2) | "D"f<a"A"e>c "E7"B2(A>B) |
"A"c4 (c2e2) | "D"d4 (d2f2) | "A"c2(a>e) "D"f2"E7"(e>d) | c2A2 A<A :|
g2 | "A"a>Aa>f e>Ae>c | "A"A>AA>c e2(A>B) |"A" c4 (c2e2) | "D"f<a"A"e>c "E7"B2g2 |
"A"a>Aa>f e>Ae>c | "A"A>AA>c e2(A>B) | "A"c2(a>e) f2(e>d) | "A"c2A2 A<A :|
A>B | "A"c4 (c2e2) | "D"f>da>d f>da>d | "A"c4 (c2e2) | "D"f<a"A"e>c "E7"B2(A>B) |
"A"c4 (c2e2) | "D"f>da>d f>da>d | "A"c2(a>e) "D"f2"E7"(e>d) | "A"c2A2 A<A :|

